X:290
T: Jack the Ba[t]chelor
N: O'Farrell's Pocket Companion v.3 (Sky ed. p.131)
N: "Irish"
M: 2/4
L: 1/8
R: polka
Q: 250
K: C
e/d/| cAAB| c2BA| d2 dd/e/| gee>d|
cAAB| c2BA| Ad dc/d/| ed d :|
z| cdef| g2 gf/e/| aba g/f/| geef|
gfga| geed/c/| d2 de/f/| ge e :|
